!!!ONB: MCCC : IGH0472_04 : Extracted Monophonic Melody
!!!COM: Handel, George Frideric
!!!OPR: Suite in E major
!!!OMV: 4
!!!SCT: HWV 430
!!!ODT: 1720///
**kern
*staff1
*clefG2
*k[f#c#g#d#]
*E:
*M4/4
8e
8g#
8f#
8b
8g#
16f#
16e
=2
8f#
8b
8g#
16cc#
16cc#[
8cc#]
16b
16d#
8c#
8a#
=3
4b
8e
8g#
8f#
8b
8g#
16f#
16e
=4
8f#
8b
8g#
16cc#
16cc#[
8cc#]
16b
16d#
8c#
8a#
=5
4b
8b
16ee
16b
8cc#
8b
16g#
16b
16ee
16b
=6
8cc#
8b
16g#
16b
16ee
16dd#
16dd#
16cc#
16cc#
16b
16b
16a
32g#
32a
16b
=7
4f#
8b
8e
8f#
8e
16b
16g#
48f#
48d#
48f#
16e
=8
16f#
16d#
8e
8b
16e
16f#
16d#
16a
16g#
16f#
8g#
16f#
16e
=9
4e
8b
16ee
16b
8cc#
8b
16g#
16b
16ee
16b
=10
8cc#
8b
16g#
16b
16ee
16dd#
16dd#
16cc#
16cc#
16b
16b
16a
32g#
32a
16b
=11
4f#
8b
8e
8f#
8e
16b
16g#
48f#
48d#
48f#
16e
=12
16f#
16d#
8e
8b
16e
16f#
16d#
16a
16g#
16f#
8g#
16f#
16e
=13
4e
8e
8g#
8f#
8b
8g#
8e
=14
8f#
8b
16g#
16e
16cc#
16e
16d#
16cc#
16b
16d#
16c#
16e
16b
16a#
=15
4b
8e
8g#
8f#
8b
8g#
8e
=16
8f#
8b
16g#
16e
16cc#
16e
16d#
16cc#
16b
16d#
16c#
16e
16b
16a#
=17
4b
16e
16b
16ee
16b
16cc#
16e
16a
16e
16b
16e
16ee
16e
=18
16cc#
16e
16a
16e
16b
16e
16ee
16e
16cc#
16e
16b
16e
16a
16d#
16e
16g#
=19
8f#
8d#
16b
16e
16g#
16ee
16cc#
16e
16a
16dd#
16b
16e
16g#
16ee
=20
16cc#
16e
16a
16dd#
16b
16e
16g#
16ee
16a
16d#
16g#
16f#
8g#
8f#
=21
4e
16e
16b
16ee
16b
16cc#
16e
16a
16e
16b
16e
16ee
16e
=22
16cc#
16e
16a
16e
16b
16e
16ee
16e
16cc#
16e
16b
16e
16a
16d#
16e
16g#
=23
8f#
8d#
16b
16e
16g#
16ee
16cc#
16e
16a
16dd#
16b
16e
16g#
16ee
=24
16cc#
16e
16a
16dd#
16b
16e
16g#
16ee
16a
16d#
16g#
16f#
8g#
8f#
=25
4e
2b
4b[
=26
4b]
4b
4.b
8a#
=27
4b
2b
4b[
=28
4b]
4b
4.b
8a#
=29
4b
16ee
16ee[
8ee]
8.a
48b
24cc#
16b[
16b]
16ee[
16ee]
=30
8.a
48b
24cc#
16b[
16b]
16ee[
16ee]
16cc#[
16cc#]
16b[
16b]
16a[
16a]
8g#
=31
4f#
8b
8e
8cc#
8e
8b
8e
=32
8cc#
8e
8b
8e
16d#
16a
16g#
16f#
8g#
16f#
16e
=33
4e
16ee
16ee[
8ee]
8.a
48b
24cc#
16b[
16b]
16ee[
16ee]
=34
8.a
48b
24cc#
16b[
16b]
16ee[
16ee]
16cc#[
16cc#]
16b[
16b]
16a[
16a]
8g#
=35
4f#
8b
8e
8cc#
8e
8b
8e
=36
8cc#
8e
8b
8e
16d#
16a
16g#
16f#
8g#
16f#
16e
=37
4e
24g#
24a
24b
24e
24f#
24g#
24d#
24e
24f#
24r
24b
24a
24g#
24a
24b
24e
24f#
24g#
=38
24d#
24e
24f#
24r
24b
24a
24g#
24a#
24b
24cc#
24dd#
24ee
24f#
24g#
24a#
24b
24cc#
24dd#
24cc#
24dd#
24b
24f#
24b
24a#
=39
24b
24f#
24d#
24r
24b
24a
24g#
24a
24b
24e
24f#
24g#
24d#
24e
24f#
24r
24b
24a
24g#
24a
24b
24e
24f#
24g#
=40
24d#
24e
24f#
24r
24b
24a
24g#
24a#
24b
24cc#
24dd#
24ee
24f#
24g#
24a#
24b
24cc#
24dd#
24cc#
24dd#
24b
24f#
24b
24a#
=41
24b
24f#
24d#
24r
24b
24a
24g#
24a
24b
24e
24ee
24dd#
24cc#
24dd#
24ee
24a
24b
24cc#
24g#
24a
24b
8e
=42
8r
24a
24b
24cc#
24b
24cc#
24dd#
24ee
24ff#
24gg#
24a
24b
24cc#
24b
24cc#
24a
24g#
24a
24g#
24f#
24g#
24e
=43
24d#
24f#
24e
24d#
24e
24f#
24r
24c#
24d#
24e
24f#
24g#
24c#
24d#
24e
24f#
24g#
24a
24d#
24e
24f#
24g#
24a
24b
=44
24e
24f#
24g#
24a
24b
24cc#
24dd#
24ee
24ff#
24a
24g#
24f#
24ee
24dd#
24cc#
24b
24a
24g#
24f#
24g#
24e
24r
24e
24d#
=45
8e
24r
24b
24a
24g#
24a
24b
24e
24ee
24dd#
24cc#
24dd#
24ee
24a
24b
24cc#
24g#
24a
24b
8e
=46
8r
24a
24b
24cc#
24b
24cc#
24dd#
24ee
24ff#
24gg#
24a
24b
24cc#
24b
24cc#
24a
24g#
24a
24g#
24f#
24g#
24e
=47
24d#
24f#
24e
24d#
24e
24f#
24r
24c#
24d#
24e
24f#
24g#
24c#
24d#
24e
24f#
24g#
24a
24d#
24e
24f#
24g#
24a
24b
=48
24e
24f#
24g#
24a
24b
24cc#
24dd#
24ee
24ff#
24a
24g#
24f#
24ee
24dd#
24cc#
24b
24a
24g#
24f#
24g#
24e
24r
24e
24d#
=49
4e
4b
2b[
=50
8b]
4b
8ee[
8ee]
8dd#
4r
=51
4r
4b
2b[
=52
8b]
4b
8ee[
8ee]
8dd#
4r
=53
4r
8b
8ee
4cc#
8r
8ee[
=54
4ee]
8r
8ee
8cc#
4a
8g#
=55
4f#
4b[
8b]
8a
8d#
8b[
=56
4b]
8ff#
40dd#
40ee
40dd#
40cc#
40dd#
16b
16dd#
16ee
16a
8g#
16f#
16e
=57
4e
8b
8ee
4cc#
8r
8ee[
=58
4ee]
8r
8ee
8cc#
4a
8g#
=59
4f#
4b[
8b]
8a
8d#
8b[
=60
4b]
8ff#
40dd#
40ee
40dd#
40cc#
40dd#
16b
16dd#
16ee
16a
8g#
16f#
16e
=61
4e
32b
32a
32g#
32f#
32e
32d#
16c#
32b
32a
32g#
32f#
32e
32d#
16c#
4b
=62
4b
16r
32c#
32d#
32e
32f#
32g#
32a#
32b
32a#
32g#
32f#
32e
32d#
16c#
16c#
16e
16b
16a#
=63
4b
32b
32a
32g#
32f#
32e
32d#
16c#
32b
32a
32g#
32f#
32e
32d#
16c#
4b
=64
4b
16r
32c#
32d#
32e
32f#
32g#
32a#
32b
32a#
32g#
32f#
32e
32d#
16c#
16c#
16e
16b
16a#
=65
4b
32ee
32dd#
32cc#
32b
32a
32g#
32f#
32e
32ee
32dd#
32cc#
32b
32a
32g#
32f#
32e
32ee
32dd#
32cc#
32b
32a
32g#
32f#
32e
=66
32ee
32dd#
32cc#
32b
32a
32g#
32f#
32e
32ee
32dd#
32cc#
32b
32a
32g#
32f#
32e
16a
16c#
16d#
16b
8g#
16e
16a
=67
4f#
4r
2r
=68
1r
=69
2r
8cc#
8a
32e
32f#
32g#
32a
32b
32cc#
32dd#
32ee
=70
8cc#
8a
32e
32f#
32g#
32a
32b
32cc#
32dd#
32ee
16cc#
16e
16b
16e
16a
16d#
16e
16g#
=71
8f#
16d#
16f#
32b
32a
32g#
32f#
32e
32d#
16c#
32cc#
32b
32a
32g#
32f#
32e
32d#
32c#
32dd#
32cc#
32b
32a
32g#
32f#
32e
32d#
=72
32ee
32dd#
32cc#
32b
32a
32g#
32f#
32e
96b
48bb
32aa
32gg#
32ff#
32ee
32dd#
32cc#
32b
32a
32g#
32f#
32e
32d#
16.c#
16r
8e
16d#
=73
4e
4r
2r
==
*-
